assets/images/icons/ham.svg

<svg width="32" height="32" viewBox="0 0 32 32" fill="none" xmlns="http://www.w3.org/2000/svg">
<path fill-rule="evenodd" clip-rule="evenodd" d="M27.1992 24C27.1992 23.1163 26.4829 22.4 25.5992 22.4H15.9992C15.1155 22.4 14.3992 23.1163 14.3992 24C14.3992 24.8837 15.1155 25.6 15.9992 25.6H25.5992C26.4829 25.6 27.1992 24.8837 27.1992 24ZM27.1992 8.00002C27.1992 7.11636 26.4829 6.40002 25.5992 6.40002H6.39922C5.51554 6.40002 4.79922 7.11636 4.79922 8.00002C4.79922 8.88367 5.51554 9.60002 6.39922 9.60002H25.5992C26.4829 9.60002 27.1992 8.88367 27.1992 8.00002ZM27.1992 16C27.1992 15.1164 26.4829 14.4 25.5992 14.4H6.39922C5.51554 14.4 4.79922 15.1164 4.79922 16C4.79922 16.8837 5.51554 17.6 6.39922 17.6H25.5992C26.4829 17.6 27.1992 16.8837 27.1992 16Z" fill="#015637"/>
</svg>

<svg xmlns="http://www.w3.org/2000/svg" width="32" height="32" fill="none"><path fill="#015637" fill-rule="evenodd" d="M27.2 24a1.6 1.6 0 0 0-1.6-1.6H16a1.6 1.6 0 1 0 0 3.2h9.6a1.6 1.6 0 0 0 1.6-1.6m0-16a1.6 1.6 0 0 0-1.6-1.6H6.4a1.6 1.6 0 1 0 0 3.2h19.2A1.6 1.6 0 0 0 27.2 8m0 8a1.6 1.6 0 0 0-1.6-1.6H6.4a1.6 1.6 0 0 0 0 3.2h19.2a1.6 1.6 0 0 0 1.6-1.6" clip-rule="evenodd"/></svg>
